X:1
T:Title
%%score { 1 | ( 2 3 ) }
L:1/8
M:4/4
K:G
V:1 treble nm="Grand Piano"
V:2 bass 
V:3 bass 
V:1
 z4 z2[Q:1/4=106] Bc | [DB]2 [CA]2 z ^GAB | [CA]2 [B,G]2 z2 G>A | [CG]>F [CF]>E [CF]2 [Ec]2 | %4
 [DB]4 z2 Bc | [DB]2 [CA]2 z ^GAB | [CA]2 [B,G]2 z2 G>A | [CG]>F [CF]>E [CD]2 [CA]2 | %8
 [B,G]4 z2 E>F | G3- G/G/ F2 E2 |[M:3/4] [Ec]4 [^DB]2 |[M:1/4] E>F |[M:4/4] G3- G/G/ F2 E2 | %13
 c4 [^DB]2 [EB][EB] | [Ge]4 [DFA]2 [DA][DA] |[M:3/4] [=Fd]4 G2 |[M:1/4] GG | %17
[M:4/4] [Ec]3 [DB] [CA][DB]AE |[M:7/8] G- G3 F3 |[M:1/4] Bc |[M:4/4] B2 A2 z ^GAB | %21
 [CA]2 [B,G]2 z2 [DG]>A | G>F F>E F2 [Ec]2 | [DB]4 z2 Bc | B2 A2 z ^GAB | [CA]2 [B,G]2 z2 [DG]>A | %26
 G>F F>E D2 A2 | [B,G]6 z2 |] %28
V:2
 z4 z2 DE | D,,F,D,F, D,,B,CD | G,,D,G,D, G,,2 B,>B, | z A, z A, z4 | z2 D,2 G,2 DE | %5
 D,,F,D,F, D,,B,CD | G,,D,G,D, G,,2 B,>B, | z A, z A, z4 | z2 D,2 G,2 G,>A, | B,3- B,/B,/ A,2 G,2 | %10
[M:3/4] [A,,F,A,]4 [B,,F,]2 |[M:1/4] G,>A, |[M:4/4] B,3- B,/[E,B,E]/ [F,A,^D]2 G,2 | %13
 [F,A,E]4 [B,,F,]2 [D,^G,][D,G,] | [^C,A,]4 =C,2 [C,F,][C,F,] |[M:3/4] [B,,G,]4 [E,G,E]2 | %16
[M:1/4] [E,B,E][E,B,E] |[M:4/4] [A,,A,]3 [B,,^G,] [C,A,][B,,G,][C,A,C][C,_B,] | %18
[M:7/8] [D,B,D]- [D,B,D]3 [D,A,D]3 |[M:1/4] [G,D][G,E] | %20
[M:4/4] [D,F,D]2 [D,F,C]2 z [D,=F,B,][D,^F,C][D,F,D] | [G,,G,]2 [G,,G,]2 z2 [B,,G,]>[B,,B,] | %22
 [D,A,C]>[D,A,C] [D,A,C]>[D,G,C] [D,A,C]2 [D,F,]2 | [G,,G,]4 z2 [G,D][G,E] | %24
 [D,F,D]2 [D,F,C]2 z [D,=F,B,][D,^F,C][D,F,D] | [G,,G,]2 [G,,G,]2 z2 [B,,G,]>[B,,B,] | %26
 [D,A,C]>[D,A,C] [D,A,C]>[D,G,C] [D,F,C]2 [D,F,C]2 | [G,,G,]6 z2 |] %28
V:3
 x8 | x8 | x8 | .D,,>C .D,>C D,A,D,F, | G,,4 z4 | x8 | x8 | .D,,>C .D,>C F,D,E,F, | G,,4 z4 | x8 | %10
[M:3/4] x6 |[M:1/4] x2 |[M:4/4] x8 | x8 | x8 |[M:3/4] x6 |[M:1/4] x2 |[M:4/4] x8 |[M:7/8] x7 | %19
[M:1/4] x2 |[M:4/4] x8 | x8 | x8 | x8 | x8 | x8 | x8 | x8 |] %28

